X: 40498
T: Tommy Coen's
R: reel
M: 4/4
K: Gmixolydian
G2dG B,GG,G|~F2cF CFA,F|G2dG B,GG,G|FGAc dBcA|
G2dG B,GG,G|~F2CF A,FCG|FDCD FGAc|dBcA GA_Bc||

